X:1
T:Questi, ch'al par
T:Mazzocchi Domenico
T:Source : Musice sacre et morali---Roma---L.Grignani---1640. Editor : André Vierendeels (25/08/18) Notes : Original clafs : C1, F4 text by Francesco Boninsegni "Comparatione della nostra vita ad un Horologio à polvere"
T:Prima parte
T:Questi, ch'al par
T:Sonetto
T:©
T:©
T:©
T:©
T:©
T:©
T:©
C:Mazzocchi Domenico
Z:©
%%score 1 { 2 | 3 }
L:1/8
Q:1/4=96
M:4/4
K:F
V:1 treble nm="Soprano" snm="S"
V:2 treble nm="MusicXML Part"
V:3 bass 
V:1
 A4 A4 | z A A>B c4 | F/G/A/B/ c/d/_e/d/ Td2 dc | d2 d2 z d2 c/d/ | B2 z F D>D z B | _A2 AG G2 G2 | %6
w: Que- sti,|ch'al par del Ciel|glo- * * * * * * * * bi lu-|cen- ti, splen- di- di|si, mà fra- li, il|mon- do a- mi- ra,|
 B>B BB/A/ c2 cB | B2 BA A2 A2 | A2 GA F2 F2 | z F2 G/A/ B/D/E/F/ G/A/B/c/ | %10
w: he- be- ro di Vul- ca- no e-|spo- sti al- l'i- ra,|cru- do na- ta- le|en- tro le fiam- * * * * * * *|
 d/F/G/A/ B/c/d/e/ f2 FG | G8 | F8 || A2 A2 z A AA/B/ | c/d/c/B/ c/B/A/B/ A/G/A/G/ F/>E/E/D/ | %15
w: * * * * * * * * * me ar-|den-|ti.|Quel- la, che qua- si in|ri- * * * * * * * * * * * * vo- li ca-|
 D2 D2 z F2 G/A/ | B2 z/ f/e/d/ c/B/A/G/ F/d/c/B/ | A/G/F/E/ D/B/A/G/ F/E/D/C/ B, z | %18
w: den- ti, ra- pi- da'o|gnhor pre- ci- pi- tar _ _ _ _ _ _ _|_ _ _ _ _ _ _ _ _ _ _ _ _|
 d<c B<A BA AG/F/ | G2 G2 z B B>B | G2 z B3 BA | c3 B A2 A2 | z2 Ac F2 FE | %23
w: si _ _ _ mi- * * * *|* ra, a- re- na|fu, ch'o- ve piu'l|Mar s'a- di- ra,|fu lu- di- brio de|
 F2 F z/ F2 G/ A/B/c/A/ | B/c/A/B/ G/A/F/G/ E/G/A/B/ c/d/B/c/ | %25
w: l'on- de, e scher- * * * *||
 A/c/d/e/ f/g/_e/f/ d/e/c/d/ B/c/A/B/ | GG z A A>=B c/B/B/A/4B/4 | c>d c>d c>d c>d | %28
w: |* zo a- i _ _ _ _ _ _|ven- * * * * * * *|
 cd/c/ B/A/G/F/ G4 | F8 ||"^Terza et ultima parte" z d B>A B4 | z B2 B/c/ _A2 AG | %32
w: |ti.|Co- si d'A- mor,|e de for- tu- na a-|
 G2 G2 z B cc/d/ | _e>d cB c2 cG | A2 A2 z2 f>f | _e3 e/d/ d2 df | c6 c d/_e/ | c4 B4 | %38
w: va- ra, tra il fo- co'e|l'on- de si rag- gi- ra, e|vol- ve, que- sta|mi- se- ra vi- ta al-|trui si _ _|ca- ra.|
 z d2 e/f/ B2 B2 | z B2 B/_A/ A3 G | G2 G2 z g2 c | c>c z c/=B/ c2 cG | c2 cB A2 A2 | %43
w: Bre- ve mo- men- to|o- gni po- ter dis-|sol- ve; Qui ti|spec- chia, o mor- ta- le, e|quin- di im- pa- ra,|
 z2 f>g _e>e e>d | d2 df c4 | c g/f/ _e/d/c/B/ c4 | B4 z2 cc | c>c c=B c2 GB | cTB B A/G/ A2 Ac | %49
w: che di ve- ro è la|vi- ta, e l'huo-|mo è _ _ _ _ _ pol-|ve. Che di|ve- tro è la vi- ta, e|l'huo- * * * * * mo è|
 F/G/A/B/ c/A/B/c/ d/e/f/e/ d/e/c/d/ | B/c/d/c/ B/c/A/B/ G z/ A/ B/G/A/B/ | A/B/c/G/ A/E/F/D/ G4 | %52
w: pol- * * * * * * * * * * * * * * *|||
 F8 |] %53
w: ve.|
V:2
 z8 | z8 | z8 |"^BC" z8 | z8 | z8 | z8 | z8 | z8 | z8 | z8 | z8 | z8 || z8 | z8 | z8 | z8 | z8 | %18
 z8 | z8 | z8 | z8 | z8 | z8 | z8 | z8 | z8 | z8 | z8 | z8 || z8 | z8 | z8 | z8 | z8 | z8 | z8 | %37
 z8 | z8 | z8 | z8 | z8 | z8 | z8 | z8 | z8 | z8 | z8 | z8 | z8 | z8 | z8 | z8 |] %53
V:3
 F,,8 | F,,8 | F,,8 | B,,8 | B,,8 | B,,4 _E,4- | E,4 =E,4- | E,4 F,4 | F,4 D,4 | D,2 C,2 B,,4- | %10
 B,,4 A,,2 D,2 | C,8 | F,,8 || F,,8 | F,,8 | B,,8 | B,,8 | B,,8 | B,,8 | _E,4 E,4 | _E,8 | %21
"^(-natural)" E,4 F,4 | F,8 | D,6 C,2 | B,,4 C,4 | D,2 A,,2 B,,4 |"^5 6" C,8 | C,2 B,,2 A,,2 E,,2 | %28
 F,,2 D,2 C,4 | F,,8 || B,,8 | B,,8 | _E,8- | E,4 =E,4 | F,6 D,2 | G,2 A,2 B,2 D,2 | %36
 _E,2 F,2 G,2 E,2 | F,4 B,,4 | B,,8 | B,,8 | _E,8 | F,2 G,2 C,4 | E,4 F,4- | F,2 D,2 G,2 A,2 | %44
 B,2 D,2 _E,2 F,2 | G,4 F,4 | B,2 A,2 G,2 E,2 | F,2 G,2 C,2 B,,2 | A,,2 G,,2 F,2 E,2 | %49
 D,2 C,2 B,,4- | B,,4 C,4 |"^6 5\n4 3" C,8 | F,,8 |] %53

